!!!!SEGMENT: pl-sa--83-a-ii-23--001-004_anonim--msza-sanctus.krn
!!!cenid: 17xx:1518
!!!COM: Anonim
!!!COM-rismID: pe30004985
!!!CDT:
!!!CNT:
!!!OPR: Msza
!!!OTL: Sanctus
!!!OMV: 004
!!!PDT:
!!!AGN: Sacred; Mass
!!!YEC: Copyright 2022 Narodowy Instytut Fryderyka Chopina (https://polishscores.org)
!!!YEM: License CC-BY-4.0 (https://creativecommons.org/licenses/by/4.0)
!!!SMS-siglum: PL-SA
!!!SMS-shelfmark: 83/A II 23
!!!SMS-shelfwork: 001-004 M
!!!SMS-variant:
!!!SMS-altvar:
!!!NIFC-rismSourceID: 1001035463
!!!NIFC-rismChildID: 1001035463
!!!NIFC-islandoraID: none
!!!URL-pdf-islandora:
!!!URL-scan: https://bc.bdsandomierz.pl/dlibra/publication/1361/edition/1329/content @EN{Scan in the Sandomierz Diocese Digital Library} @PL{Skany w portalu Cyfrowa Biblioteka Diecezjalna w Sandomierzu}
!!!IIIF:
!!!ONB-nifc: UWAGA: części Mszy: 1. Kyrie, 2. Gloria, 3. Credo, 4. Sanctus, 5. Agnus Dei. Uwaga: część Sanctus zawiera Benedictus
!!!AIN: 2 alto 2 bass 1 cbass 2 soprn 1 tenor
!!!key: C
**kern	**kern	**text	**kern	**text	**kern	**text	**kern	**text	**kern	**text	**kern	**text	**kern	**text
*group2	*group1	*	*group1	*	*group1	*	*group1	*	*group1	*	*group1	*	*group1	*
*part8	*part7	*	*part6	*	*part5	*	*part4	*	*part3	*	*part2	*	*part1	*
*staff8	*staff7	*	*staff6	*	*staff5	*	*staff4	*	*staff3	*	*staff2	*	*staff1	*
*I"Baſso	*I"BAſSO IIdo	*	*I"BAſSO Imo	*	*I"TENORE unisono	*	*I"Alto IIdo	*	*I"ALTO Imo.	*	*I"CANTO IIdo	*	*I"CANTO Imo	*
*I'b	*I'B 2	*	*I'B 1	*	*I'T	*	*I'A 2	*	*I'A 1	*	*I'S 2	*	*I'S 1	*
*Icbass	*Ibass	*	*Ibass	*	*Itenor	*	*Ialto	*	*Ialto	*	*Isoprn	*	*Isoprn	*
*ICstr	*ICvox	*	*ICvox	*	*ICvox	*	*ICvox	*	*ICvox	*	*ICvox	*	*ICvox	*
*clefF4	*clefF4	*	*clefF4	*	*clefC4	*	*clefC3	*	*clefC3	*	*clefC1	*	*clefC1	*
*k[]	*k[]	*	*k[]	*	*k[]	*	*k[]	*	*k[]	*	*k[]	*	*k[]	*
*C:	*C:	*	*C:	*	*C:	*	*C:	*	*C:	*	*C:	*	*C:	*
*M4/4	*M4/4	*	*M4/4	*	*M4/4	*	*M4/4	*	*M4/4	*	*M4/4	*	*M4/4	*
*met(c)	*met(c)	*	*met(c)	*	*met(c)	*	*met(c)	*	*met(c)	*	*met(c)	*	*met(c)	*
=1	=1	=1	=1	=1	=1	=1	=1	=1	=1	=1	=1	=1	=1	=1
*2\right	*2\right	*	*2\right	*	*2\right	*	*2\right	*	*2\right	*	*2\right	*	*2\right	*
!!LO:TX:t=P:problem:metrum z kropką w środku (z wyj. b)
!!LO:TX:t=P:problem:oddech/cezura na różnej wysokości
4C/	4C/	San-	4C/	San-	4e\	San-	4e\	San-	4g\	San-	4cc\	San-	4cc\	San-
4C/	4C/	-ct(us)	4C/	-ct(us)	4c\	-ct(us)	4e\	-ct(us)	4g\	-ctus	4cc\	-ct(us)	4cc\	-ct(us)
*	*	*ij	*	*	*	*ij	*	*ij	*	*ij	*	*ij	*	*ij
4F\	4F\	San-	4F\	San-	4f\	San-	4f\	San-	4a\	San-	4dd\	San-	4cc\	San-
4F\	4F\	-ct(us)	4F\	-ct(us)	4c\	-ct(us)	4f\	-ct(us)	4a\	-ctus	4dd\	-ct(us)	4cc\	-ct(us)
=2	=2	=2	=2	=2	=2	=2	=2	=2	=2	=2	=2	=2	=2	=2
*	*	*	*	*ij	*	*	*	*	*	*	*	*	*	*
4D\	4D\	San-	4D\	San-	4f#X\	San-	4f#X\	San-	4a\	San-	4dd\	San-	4dd\	San-
4D\	4D\	-ct(us)	4D\	-ct(us)	4d\	-ct(us)	4f#\	-ct(us)	4a\	-ctus	4dd\	-ct(us)	4dd\	-ct(us)
4G\	4G\	San-	4G\	San-	4g\	San-	4g\	San-	4b\	San-	4dd\	San-	4dd\	San-
4G\	4G\	-ct(us)	4G\	-ct(us)	4d\	-ct(us)	4g\	-ct(us)	4b\	-ctus	4dd\	-ct(us)	4dd\	-ct(us)
*	*	*	*	*	*	*Xij	*	*	*	*	*	*	*	*
=3	=3	=3	=3	=3	=3	=3	=3	=3	=3	=3	=3	=3	=3	=3
!	!	!	!	!	!	!	!	!	!	!	!	!	!LO:TX:t=P:problem=takt niejasny harmonicznie	!
4E\	4G#X\	San-	4E\	San-	4d#X\	San-	4g#X\	San-	4g#X\	San-	4ee\	San-	4ee\	San-
4E\	4E\	-ct(us)	4E\	-ct(us)	4B\	-ct(us)	4g#\	-ct(us)	4g#\	-ctus	4ee\	-ct(us)	4ee\	-ct(us)
*	*	*	*	*	*	*ij	*	*	*	*	*	*	*	*
4A\	4A\	San-	4A\	San-	4e\	San-	4a\	San-	4a\	San-	4ee\	San-	4ee\	San-
4A\	4A\	-ct(us)	4A\	-ct(us)	4B\	-ct(us)	4a\	-ct(us)	4a\	-ctus	4ee\	-ct(us)	4ee\	-ct(us)
*	*	*Xij	*	*Xij	*	*Xij	*	*Xij	*	*Xij	*	*Xij	*	*Xij
!	!	!	!	!	!	!	!	!	!	!	!LO:LB:g=original	!	!	!
=4	=4	=4	=4	=4	=4	=4	=4	=4	=4	=4	=4	=4	=4	=4
4B\	4B\	San-	4B\	San-	4d\	San-	4g\	San-	4b\	San-	4b\	San-	4dd\	San-
4G\	4B\	-ct(us)	4G\	-ct(us)	4B\	-ct(us)	4g\	-ct(us)	4g\	-ct(us)	4b\	-ct(us)	4dd\	-ct(us)
4c\	4c\	Do-	4c\	Do-	4c\	Do-	8.g\	Do-	4g\	Do-	8cc\	Do-	4ee\	Do-
.	.	.	.	.	.	.	.	.	.	.	8cc\	-mi-	.	.
.	.	.	.	.	.	.	16g\	-mi-	.	.	.	.	.	.
4C/	8C/	-mi-	8C/	-mi-	8c\	-mi-	4g\	-nus	8g\	-mi-	4cc\	-nus	8ee\	-mi-
.	8C/	-n(us)	8C/	-n(us)	8c\	-n(us)	.	.	8g\	-nus	.	.	8ee\	-n(us)
!	!	!	!LO:LB:g=original	!	!	!	!LO:LB:g=original	!	!LO:LB:g=original	!	!	!	!	!
=5	=5	=5	=5	=5	=5	=5	=5	=5	=5	=5	=5	=5	=5	=5
!LO:TX:t=P:problem=mixed beam	!	!	!	!	!	!	!	!	!	!	!	!	!	!
8F\L	8F\	DE-	8F\	DE-	8c\	DE-	8g\	DE-	8g\	De-	8dd\	De-	8ff\	DE-
8D\	8D\	-US	8D\	-US	8d\	-US	16f\LL	-US	8a\	-us	8cc\	-us	8ee\	-US
.	.	.	.	.	.	.	16e\JJ	.	.	.	.	.	.	.
!	!LO:LB:g=original	!	!	!	!	!	!	!	!	!	!	!	!LO:LB:g=original	!
8G\	8.G\	Sab-	8.G\	Sab-	8.B\	Sab-	8.d\	Sab-	8.g\	Sab-	8.dd\	Sab-	8.dd\	Sab-
8GG/J	.	.	.	.	.	.	.	.	.	.	.	.	.	.
.	16GG/	-ba-	16GG/	-ba-	16d\	-ba-	16d\	-ba-	16g\	-ba-	16dd\	-ba-	16dd\	-ba-
!	!	!	!	!	!LO:LB:g=original	!	!	!	!	!	!	!	!	!
2C/	2C/	-oth	2C/	-oth	2e\	-oth	2c\	-oth	2g\	-oth	2cc\	-oth	2cc\	-oth
!LO:LB:g=original	!	!	!	!	!	!	!	!	!	!	!	!	!	!
=6	=6	=6	=6	=6	=6	=6	=6	=6	=6	=6	=6||	=6||	=6||	=6||
!LO:TX:a:t=2	!	!	!	!	!	!	!	!	!	!	!	!	!	!
0r	0r	.	0r	.	0r	.	1r	.	1r	.	2r	.	8g\L	San-
.	.	.	.	.	.	.	.	.	.	.	.	.	8cc\	.
.	.	.	.	.	.	.	.	.	.	.	.	.	8cc\	.
.	.	.	.	.	.	.	.	.	.	.	.	.	8g\J	.
.	.	.	.	.	.	.	.	.	.	.	8r	.	8cc\L	.
.	.	.	.	.	.	.	.	.	.	.	8cc\L	San-	8ee\	.
.	.	.	.	.	.	.	.	.	.	.	8cc\	.	8ee\	.
.	.	.	.	.	.	.	.	.	.	.	8g\J	.	8dd\J	.
=7	=7	=7	=7	=7	=7	=7	=7	=7	=7	=7	=7	=7	=7	=7
.	.	.	.	.	.	.	2r	.	8r	.	8cc\L	.	8ee\L	.
.	.	.	.	.	.	.	.	.	8c/L	San-	8ee\	.	8gg\	.
.	.	.	.	.	.	.	.	.	8c/	.	8ee\	.	8gg\	.
.	.	.	.	.	.	.	.	.	8G/J	.	8dd\J	.	8ff\J	.
.	.	.	.	.	.	.	8r	.	8c\L	.	8ee\L	.	8ee\L	.
.	.	.	.	.	.	.	8c/L	San-	8e\	.	8gg\	.	8ee\	.
.	.	.	.	.	.	.	8c/	.	8e\	.	8gg\	.	8ee\	.
.	.	.	.	.	.	.	8G/J	.	8d\J	.	8ff\J	.	8dd\J	.
=8	=8	=8	=8	=8	=8	=8	=8	=8	=8	=8	=8	=8	=8	=8
2r	1r	.	2r	.	4r	.	8c\L	.	8e\L	.	8ee\L	.	8cc\L	.
.	.	.	.	.	.	.	8e\	.	8g\	.	8ee\	.	8cc\	.
.	.	.	.	.	8c\L	San-	8e\	.	8g\	.	8ee\	.	8cc\	.
.	.	.	.	.	8G\J	.	8d\J	.	8f\J	.	8dd\J	.	8g\J	.
4r	.	.	4r	.	8c\L	.	8e\L	.	8e\L	.	8cc\L	.	8g/L	.
.	.	.	.	.	8e\	.	8g\	.	8e\	.	8cc\	.	8e/	.
8C/L	.	.	8C/L	San-	8e\	.	8g\	.	8e\	.	8cc\	.	8e/	.
8GG/J	.	.	8GG/J	.	8d\J	.	8f\J	.	8d\J	.	8g\J	.	8c/J	.
=9	=9	=9	=9	=9	=9	=9	=9	=9	=9	=9	=9	=9	=9	=9
!	!	!	!	!	!	!	!	!	!LO:TX:t=P:problem=mixed beam	!	!	!	!LO:TX:t=P:problem=mixed beam	!
8C\L	4r	.	8C\L	.	8c\L	.	8e\L	.	8c\L	.	8g/L	.	8c/L	.
8E\	.	.	8E\	.	8g\	.	8e\	.	8c\	.	8e/	.	8cc\	.
8E\	8C/L	San-	8E\	.	8g\	.	8e\	.	8c\	.	8e/	.	8cc\	.
8D\J	8GG/J	.	8D\J	.	8f\J	.	8d\J	.	8G/J	.	8c/J	.	8g\J	.
!	!	!	!	!	!	!	!	!	!	!	!LO:TX:t=P:problem=mixed beam	!	!	!
8E\L	8C/L	.	8E\L	.	8e\L	.	8c/L	.	8G/L	.	8c/L	.	8cc\L	.
8G\	8E/	.	8G\	.	8e\	.	8G/	.	8E/	.	8cc\	.	8ee\	.
8G\	8E/	.	8G\	.	8e\	.	8G/	.	8E/	.	8cc\	.	8ee\	.
8F\J	8D/J	.	8F\J	.	8d\J	.	8E/J	.	8C/J	.	8b\J	.	8dd\J	.
!	!	!	!	!	!	!	!	!	!	!	!LO:LB:g=original	!	!	!
=10	=10	=10	=10	=10	=10	=10	=10	=10	=10	=10	=10	=10	=10	=10
!	!	!	!	!	!	!	!	!	!LO:TX:t=P:problem=mixed beam	!	!	!	!	!
8E\L	8C\L	.	8E\L	.	8c\L	.	8E/L	.	8C/L	.	8cc\L	.	8ee\L	.
8E\	8G\	.	8E\	.	8G\	.	8C/	.	8c\	.	8ee\	.	8gg\	.
8E\	8G\	.	8E\	.	8G\	.	8C/	.	8c\	.	8ee\	.	8gg\	.
8D\J	8F\J	.	8D\J	.	8E\J	.	8C/J	.	8B\J	.	8dd\J	.	8ff\J	.
!	!	!	!	!	!	!	!LO:TX:t=P:problem=mixed beam	!	!	!	!	!	!	!
8C/L	8E\L	.	8C/L	.	8E/L	.	8C/L	.	8c\L	.	8ee\L	.	8ee\L	.
8C/	8E\	.	8C/	.	8C/	.	8c\	.	8e\	.	8gg\	.	8ee\	.
8C/	8E\	.	8C/	.	8C/	.	8c\	.	8e\	.	8gg\	.	8ee\	.
8C/J	8D\J	.	8C/J	.	8C/J	.	8B\J	.	8d\J	.	8ff\J	.	8dd\J	.
!	!	!	!	!	!	!	!	!	!LO:LB:g=original	!	!	!	!	!
=11	=11	=11	=11	=11	=11	=11	=11	=11	=11	=11	=11	=11	=11	=11
!	!	!	!	!	!LO:TX:t=P:problem=mixed beam	!	!	!	!	!	!	!	!	!
4c\	8C\L	.	4c\	.	8C/L	.	8c\L	.	8e\L	.	8ee\L	.	8cc\L	.
.	8E\	.	.	.	8c\	.	8e\	.	8g\	.	8cc\	.	8cc\	.
4c\	8E\	.	4c\	-ct(us)	8c\	.	8e\	.	8g\	.	8cc\	.	8cc\	.
.	8G\J	.	.	.	8e\J	.	8d\J	.	8f\J	.	8g\J	.	8cc\J	.
!	!	!	!	!	!	!	!	!	!LO:TX:t=P:problem=mixed beam	!	!	!	!	!
4c\	8G\L	.	4c\	San-	8g\L	.	8e\L	.	8e\L	.	8g/L	.	8cc\L	.
.	8c\	.	.	.	8e\	.	8g\	.	8c\	.	8e/	.	8cc\	.
4c\	8c\	.	4c\	-ct(us)	8e\	.	8g\	.	8c\	.	8e/	.	8cc\	.
.	8c\J	.	.	.	8c\J	.	8f\J	.	8G/J	.	8c/J	.	8cc\J	.
!LO:PB:g=original	!	!	!LO:PB:g=original	!	!	!	!LO:LB:g=original	!	!	!	!	!	!LO:LB:g=original	!
=12	=12	=12	=12	=12	=12	=12	=12	=12	=12	=12	=12	=12	=12	=12
!	!	!	!	!	!	!	!	!	!	!	!	!	!LO:TX:t=P:problem=takty 12-13 niejasne harmonicznie	!
8c\L	8c\	.	8c\	San-	8g\	.	8e\	.	8g\	.	8cc\	.	8cc\	.
8c\	8c\	-ctus	8c\	-ctus	8g\	-ctus	8c\	-ctus	8g\	-ctus	8cc\	-ctus	8cc\	-ctus
8B\	8B\	Do-	8B\	Do-	8f\	Do-	8d\	Do-	8g\	Do-	8b\	Do-	8dd\	Do-
8G\J	16G\	-mi-	16G\	-mi-	16e\	-mi-	16d\	-mi-	16g\	-mi-	16b\	-mi-	16dd\	-mi-
.	16G\	-nus	16G\	-nus	16d\	-n(us)	16d\	-nus	16g\	-nus	16b\	-nus	16dd\	-nus
!	!	!	!	!	!LO:LB:g=original	!	!	!	!	!	!	!	!	!
8c\L	8c\	DE-	8c\	DE-	16e\LL	DE-	8e\	DE-	8g\	De-	8cc\	De-	8ee\	De-
.	.	.	.	.	16d\JJ	.	.	.	.	.	.	.	.	.
!	!LO:LB:g=original	!	!	!	!	!	!	!	!	!	!	!	!	!
8G\J	8G\	-US	8G\	-US	8c\	-US	8d\	-US	8g\	-us	8cc\	-us	8dd\	-us
8r	8r	.	8r	.	8r	.	8r	.	8r	.	8r	.	8r	.
8G\	16G\	DE-	16G\	DE-	16d\	DE-	16d\	DE-	16g\	De-	16b\	De-	16dd\	DE-
.	16G\	-US	16G\	-US	16B\	-US	16d\	-US	16g\	-us	16b\	-us	16dd\	-US
=13	=13	=13	=13	=13	=13	=13	=13	=13	=13	=13	=13	=13	=13	=13
!LO:TX:t=P:problem=mixed beam	!	!	!	!	!	!	!	!	!	!	!	!	!	!
8c\L	8c\	DE-	8c\L	Sab-	8c\L	Sab-	8d\L	Sab-	4.g\	Sab-	8cc\L	Sab-	4dd\	Sab-
8A\	8A\	-US	8A\J	.	8e\J	.	8e\J	.	.	.	8b\J	.	.	.
8d\	8d\	Sab-	8d\	.	8d\	.	8.d\	.	.	.	8.a\	.	8.dd\	.
8D/J	8D/	-ba-	8D\	-ba-	8c\	-ba-	.	.	8f#X\	-ba-	.	.	.	.
.	.	.	.	.	.	.	16f#X\	-ba-	.	.	16a\	-ba-	16dd\	-ba-
4G\	4G\	-oth	4G\	-oth	4B\	-oth	4g\	-oth	4g\	-oth	4b\	-oth	4dd\	-oth
4r	4r	.	4r	.	4r	.	4r	.	4r	.	4r	.	8g/L	San-
.	.	.	.	.	.	.	.	.	.	.	.	.	8d/J	.
=14	=14	=14	=14	=14	=14	=14	=14	=14	=14	=14	=14	=14	=14	=14
!LO:TX:a:t=2	!	!	!	!	!	!	!	!	!	!	!	!	!	!
0r	0r	.	0r	.	1r	.	1r	.	2r	.	4r	.	8g\L	.
.	.	.	.	.	.	.	.	.	.	.	.	.	8b\	.
.	.	.	.	.	.	.	.	.	.	.	8g/L	San-	8b\	.
.	.	.	.	.	.	.	.	.	.	.	8d/J	.	8a\J	.
!	!	!	!	!	!	!	!	!	!LO:N:vis=8	!	!	!	!	!
.	.	.	.	.	.	.	.	.	4r	.	8g\L	.	8b\L	.
.	.	.	.	.	.	.	.	.	.	.	8b\	.	8dd\	.
.	.	.	.	.	.	.	.	.	8g\L	San-	8b\	.	8dd\	.
.	.	.	.	.	.	.	.	.	8d\J	.	8a\J	.	8cc\J	.
!	!	!	!	!	!	!	!	!	!LO:PB:g=original	!	!LO:LB:g=original	!	!	!
=15	=15	=15	=15	=15	=15	=15	=15	=15	=15	=15	=15	=15	=15	=15
.	.	.	.	.	2r	.	4r	.	8g\L	.	8b\L	.	8b\L	.
.	.	.	.	.	.	.	.	.	8b\	.	8dd\	.	8b\	.
.	.	.	.	.	.	.	8g\L	San-	8b\	.	8dd\	.	8b\	.
.	.	.	.	.	.	.	8d\J	.	8a\J	.	8cc\J	.	8a\J	.
!	!	!	!	!	!	!	!LO:LB:g=original	!	!	!	!	!	!	!
.	.	.	.	.	4r	.	8g\L	.	8b\L	.	8b\L	.	8g/L	.
.	.	.	.	.	.	.	8b\	.	8dd\	.	8b\	.	8g/	.
.	.	.	.	.	8G/L	San-	8b\	.	8dd\	.	8b\	.	8g/	.
.	.	.	.	.	8D/J	.	8a\J	.	8cc\J	.	8a\J	.	8d/J	.
=16	=16	=16	=16	=16	=16	=16	=16	=16	=16	=16	=16	=16	=16	=16
4r	2r	.	4r	.	8G\L	.	8b\L	.	8b\L	.	8g/L	.	8g\L	.
.	.	.	.	.	8B\	.	8dd\	.	8b\	.	8g/	.	8b\	.
8G\L	.	.	8G\L	San-	8B\	.	8dd\	.	8b\	.	8g/	.	8b\	.
8D\J	.	.	8D\J	.	8A\J	.	8cc\J	.	8a\J	.	8d/J	.	8dd\J	.
!	!	!	!	!	!	!	!	!	!	!	!	!	!LO:LB:g=original	!
8G\L	4r	.	8G\L	.	8B\L	.	8b\L	.	8g\L	.	8g\L	.	8dd\L	.
8B\	.	.	8B\	.	8d\	.	8b\	.	8g\	.	8b\	.	8gg\	.
8B\	8G\L	San-	8B\	.	8d\	.	8b\	.	8g\	.	8b\	.	8gg\	.
8A\J	8D\J	.	8A\J	.	8c\J	.	8a\J	.	8d\J	.	8dd\J	.	8dd\J	.
!	!	!	!LO:LB:g=original	!	!	!	!	!	!	!	!	!	!	!
=17	=17	=17	=17	=17	=17	=17	=17	=17	=17	=17	=17	=17	=17	=17
8B\L	8G\L	.	8B\L	.	8B\L	.	4g\	.	8g\L	.	8dd\L	.	8dd\L	.
8d\	8B\	.	8d\	.	8B\	.	.	.	8b\	.	8gg\	.	8b\	.
8d\	8B\	.	8d\	.	8B\	.	4g\	-ct(us)	8b\	.	8gg\	.	8b\	.
8c\J	8A\J	.	8c\J	.	8A\J	.	.	.	8dd\J	.	8dd\J	.	8g\J	.
*	*	*	*	*	*	*	*	*ij	*	*	*	*	*	*
8B\L	8G\L	.	8B\L	.	8G/L	.	4g\	San-	8dd\L	.	8dd\L	.	8g\L	.
8B\	8d\	.	8B\	.	8G/	.	.	.	8b\	.	8gg\	.	8b\	.
8B\	8d\	.	8B\	.	8G/	.	4g\	-ct(us)	8b\	.	8gg\	.	8b\	.
8A\J	8c\J	.	8A\J	.	8D/J	.	.	.	8g\J	.	8dd\J	.	8dd\J	.
!LO:LB:g=original	!	!	!	!	!	!	!	!	!	!	!	!	!	!
=18	=18	=18	=18	=18	=18	=18	=18	=18	=18	=18	=18	=18	=18	=18
8G\L	8B\L	.	8G\L	.	8G\L	.	4g\	San-	8g\L	.	8dd\L	.	8dd\L	.
8D\	8B\	.	8D\	.	8B\	.	.	.	8d\	.	8b\	.	8gg\	.
8D\	8B\	.	8D\	.	8B\	.	4g\	-ct(us)	8d\	.	8b\	.	8gg\	.
8BB\J	8A\J	.	8BB\J	.	8d\J	.	.	.	8d\J	.	8g\J	.	8dd\J	.
!	!	!	!	!	!LO:LB:g=original	!	!	!	!	!	!	!	!	!
8BB/L	8G\L	.	8BB/L	.	8d\L	.	4g\	San-	8d\L	.	8g\L	.	8dd\L	.
8GG/	8D\	.	8GG/	.	8g\	.	.	.	8B\	.	8b\	.	8b\	.
8GG/	8D\	.	8GG/	.	8g\	.	4g\	-ct(us)	8B\	.	8b\	.	8b\	.
*	*	*	*	*	*	*	*	*Xij	*	*	*	*	*	*
8GG/J	8BB\J	.	8GG/J	.	8d\J	.	.	.	8G\J	.	8dd\J	.	8g\J	.
!	!LO:LB:g=original	!	!	!	!	!	!	!	!	!	!	!	!	!
=19	=19	=19	=19	=19	=19	=19	=19	=19	=19	=19	=19	=19	=19	=19
8GG/L	8BB/L	.	8GG/L	.	8d\L	.	2g\	San-	8G/	.	8dd\L	.	8g\L	.
8BB/	8GG/	.	8BB/	.	8d\J	.	.	.	8g\	-ct(us)	8b\	.	8dd\	.
8BB/	8GG/	.	8BB/	.	16d\LL	.	.	.	16g\LL	San-	8b\	.	8dd\	.
.	.	.	.	.	16e\	.	.	.	16a\	.	.	.	.	.
8D/J	8GG/J	.	8D/J	.	16e\	.	.	.	16g\	.	8g\J	.	8cc\J	.
.	.	.	.	.	16c\JJ	.	.	.	16a\JJ	.	.	.	.	.
8G\L	8G\	.	8G\	.	8B\	.	4f\	.	8b\	.	8g\	.	8b\	.
8G\	8GG/	-ct(us)	8G\	-ct(us)	8B\	-ct(us)	.	.	8g\	-ct(us)	8g\	-ctus	8b\	-ct(us)
8A\	16F\LL	San-	8A\L	San-	8c\L	San-	4a\	.	8a\L	San-	(8a\L	San-	8cc\L	San-
.	16G\	.	.	.	.	.	.	.	.	.	.	.	.	.
8B\J	16A\	.	8B\J	.	16f\L	.	.	.	16g\L	.	8b\J)	.	8dd\J	.
.	16B\JJ	.	.	.	16e\JJ	.	.	.	16f\JJ	.	.	.	.	.
!	!	!	!	!	!	!	!	!	!LO:LB:g=original	!	!	!	!	!
=20	=20	=20	=20	=20	=20	=20	=20	=20	=20	=20	=20	=20	=20	=20
!LO:TX:t=P:problem=mixed beam	!	!	!	!	!	!	!	!	!	!	!	!	!	!
8c\L	8c\	.	8c\	.	8e\	.	8g\	.	8g\	.	8cc\	.	8ee\	.
8C/J	8C/	-ctus	8C/	-ctus	8c\	-ctus	8g\	-ctus	8g\	-ctus	8cc\	-ct(us)	8ee\	-ctus
4r	4r	.	4r	.	4r	.	4r	.	4r	.	4r	.	8cc\L	San-
.	.	.	.	.	.	.	.	.	.	.	.	.	8g\J	.
2r	2r	.	2r	.	2r	.	2r	.	2r	.	4r	.	8cc\L	.
.	.	.	.	.	.	.	.	.	.	.	.	.	8ee\	.
.	.	.	.	.	.	.	.	.	.	.	8cc\L	San-	8ee\	.
.	.	.	.	.	.	.	.	.	.	.	8g\J	.	8dd\J	.
=21	=21	=21	=21	=21	=21	=21	=21	=21	=21	=21	=21	=21	=21	=21
!LO:TX:t=1	!	!	!	!	!	!	!	!	!	!	!	!	!	!
1r	0r	.	1r	.	1r	.	2r	.	4r	.	8cc\L	.	8ee\L	.
.	.	.	.	.	.	.	.	.	.	.	8ee\	.	8gg\	.
.	.	.	.	.	.	.	.	.	8c/L	San-	8ee\	.	8gg\	.
.	.	.	.	.	.	.	.	.	8G/J	.	8dd\J	.	8ff\J	.
.	.	.	.	.	.	.	4r	.	8c\L	.	8ee\L	.	8ee\L	.
.	.	.	.	.	.	.	.	.	8e\	.	8gg\	.	8ee\	.
.	.	.	.	.	.	.	8c/L	San-	8e\	.	8gg\	.	8ee\	.
.	.	.	.	.	.	.	8G/J	.	8d\J	.	8ff\J	.	8dd\J	.
!	!	!	!	!	!	!	!LO:LB:g=original	!	!	!	!LO:LB:g=original	!	!LO:PB:g=original	!
=22	=22	=22	=22	=22	=22	=22	=22	=22	=22	=22	=22	=22	=22	=22
2r	.	.	2r	.	4r	.	8c\L	.	8e\L	.	8ee\L	.	8cc\L	.
.	.	.	.	.	.	.	8e\	.	8g\	.	8ee\	.	8cc\	.
.	.	.	.	.	8c\L	San-	8e\	.	8g\	.	8ee\	.	8cc\	.
.	.	.	.	.	8G\J	.	8d\J	.	8f\J	.	8dd\J	.	8g\J	.
4r	.	.	4r	.	8c\L	.	8e\L	.	8e\L	.	8cc\L	.	8g/L	.
.	.	.	.	.	8e\	.	8g\	.	8e\	.	8cc\	.	8e/	.
8C/L	.	.	8C/L	San-	8e\	.	8g\	.	8e\	.	8cc\	.	8e/	.
8GG/J	.	.	8GG/J	.	8d\J	.	8f\J	.	8d\J	.	8g\J	.	8c/J	.
!	!	!	!LO:LB:g=original	!	!	!	!	!	!	!	!	!	!	!
=23	=23	=23	=23	=23	=23	=23	=23	=23	=23	=23	=23	=23	=23	=23
!	!	!	!	!	!	!	!	!	!	!	!	!	!LO:TX:t=P:problem=mixed beam	!
8C\L	4r	.	8C\L	.	8e\L	.	8e\L	.	8c\L	.	8g/L	.	8c/L	.
8E\	.	.	8E\	.	8g\	.	8e\	.	8c\	.	8e/	.	8cc\	.
8E\	8C/L	San-	8E\	.	8g\	.	8e\	.	8c\	.	8e/	.	8cc\	.
8D\J	8GG/J	.	8D\J	.	8f\J	.	8d\J	.	8G\J	.	8c/J	.	8g\J	.
!	!	!	!	!	!	!	!LO:TX:t=P:problem=mixed beam	!	!	!	!LO:TX:t=P:problem=mixed beam	!	!	!
8C\L	8C\L	.	8C\L	.	8e\L	.	8c\L	.	8G/L	.	8c/L	.	8cc\L	.
8G\	8E\	.	8G\	.	8e\	.	8c\	.	8E/	.	8cc\	.	8ee\	.
8G\	8E\	.	8G\	.	8e\	.	8c\	.	8E/	.	8cc\	.	8ee\	.
8F\J	8D\J	.	8F\J	.	8d\J	.	8G/J	.	8C/J	.	8b\J	.	8dd\J	.
!LO:LB:g=original	!	!	!	!	!LO:LB:g=original	!	!	!	!	!	!	!	!	!
=24	=24	=24	=24	=24	=24	=24	=24	=24	=24	=24	=24	=24	=24	=24
!	!	!	!	!	!	!	!	!	!LO:TX:t=P:problem=mixed beam	!	!	!	!	!
8E\L	8E\L	.	8E\L	.	8c\L	.	8E/L	.	8C/L	.	8cc\L	.	8ee\L	.
8E\	8G\	.	8E\	.	8G\	.	8C/	.	8c\	.	8ee\	.	8gg\	.
8E\	8G\	.	8E\	.	8G\	.	8C/	.	8c\	.	8ee\	.	8gg\	.
8D\J	8F\J	.	8D\J	.	8E\J	.	8C/J	.	8B\J	.	8dd\J	.	8ff\J	.
!	!	!	!	!	!	!	!LO:TX:t=P:problem=mixed beam	!	!	!	!	!	!	!
4C/	8E\L	.	4C/	.	8E/L	.	8C/L	.	8c\L	.	8ee\L	.	8ee\L	.
.	8E\	.	.	.	8C/	.	8c\	.	8e\	.	8gg\	.	8ee\	.
4C/	8E\	.	4C/	-ctus	8C/	.	8c\	.	8e\	.	8gg\	.	8ee\	.
.	8D\J	.	.	.	8C/J	.	8B\J	.	8d\J	.	8ff\J	.	8dd\J	.
=25	=25	=25	=25	=25	=25	=25	=25	=25	=25	=25	=25	=25	=25	=25
!	!	!	!	!	!LO:TX:t=P:problem=mixed beam	!	!	!	!	!	!	!	!	!
4c\	8C\L	.	4c\	San-	8C/L	.	8c\L	.	8e\L	.	8ee\L	.	8cc\L	.
.	8E\	.	.	.	8c\	.	8e\	.	8g\	.	8cc\	.	8cc\	.
4c\	8E\	.	4c\	-ct(us)	8c\	.	8e\	.	8g\	.	8cc\	.	8cc\	.
.	8G\J	.	.	.	8e\J	.	8d\J	.	8f\J	.	8g\J	.	8cc\J	.
*	*	*	*	*ij	*	*	*	*	*	*	*	*	*	*
4c\	8G\L	.	4c\	San-	8g\L	.	8e\L	.	8e\L	.	8g/L	.	8cc\L	.
.	8c\	.	.	.	8e\	.	8g\	.	8c\	.	8e/	.	8cc\	.
4c\	8c\	.	4c\	-ct(us)	8e\	.	8g\	.	8c\	.	8e/	.	8cc\	.
*	*	*	*	*Xij	*	*	*	*	*	*	*	*	*	*
.	8c\J	.	.	.	8c\J	.	8f\J	.	8G\J	.	8c/J	.	8cc\J	.
!	!LO:LB:g=original	!	!	!	!	!	!	!	!LO:LB:g=original	!	!	!	!	!
=26	=26	=26	=26	=26	=26	=26	=26	=26	=26	=26	=26	=26	=26	=26
!LO:TX:t=P:problem=mixed beam	!	!	!	!	!	!	!	!	!	!	!	!	!	!
8c\L	8c\	.	8c\	San-	8c\	.	8e\	.	8g\	.	8c/	.	8cc\	.
8C/J	8C/	-ctus	8C/	-ct(us)	8c\	-ctus	8e\	-ct(us)	8g\	-ctus	8cc\	-ctus	8cc\	-ctus
4r	4r	.	4r	.	4r	.	4r	.	4r	.	4r	.	4r	.
4G#X\	4E\	Do-	4G#X\	Do-	4e\	Do-	8.e\	Do-	4g#X\	Do-	4g#X\	Do-	4b\	Do-
.	.	.	.	.	.	.	16e\	-mi-	.	.	.	.	.	.
4E\	8E\	-mi-	8E\	-mi-	8e\	-mi-	4g#X\	-nus	8g#\L	-mi-	8g#\	-mi-	8b\	-mi-
.	8E\	-n(us)	8E\	-nus	8e\	-nus	.	.	8g#\J	-nus	8g#\	-n(us)	8b\	-nus
=27	=27	=27	=27	=27	=27	=27	=27	=27	=27	=27	=27	=27	=27	=27
4A\	4A\	DE-	4A\	De-	4e\	De-	4a\	DE-	4a\	De-	4a\	De-	4cc\	De-
4A\	4A\	-US	4A\	-us	4e\	-us	4a\	-US	4a\	-(us)	4a\	-us	4cc\	-us
4B\	4G\	Do-	4B\	Do-	4f\	Do-	4g\	Do-	4gn\	Do-	4b\	Do-	8dd\	Do-
.	.	.	.	.	.	.	.	.	.	.	.	.	8dd\	-mi-
4G\	8G\	-mi-	8G\	-mi-	8f\	-mi-	8g\	-mi-	8g\	-mi-	8dd\	-mi-	4dd\	-n(us)
.	8G\	-n(us)	8G\	-nus	8d\	-n(us)	8g\	-n(us)	8g\	-nus	8dd\	-n(us)	.	.
!	!	!	!LO:LB:g=original	!	!	!	!LO:LB:g=original	!	!	!	!	!	!	!
=28	=28	=28	=28	=28	=28	=28	=28	=28	=28	=28	=28	=28	=28	=28
4c\	4c\	DE-	4c\	De-	8e\	DE-	4g\	DE-	4g\	De-	4ee\	De-	4ee\	De-
.	.	.	.	.	8d\	.	.	.	.	.	.	.	.	.
4c\	4c\	-US	4c\	-us	4c\	-US	4g\	-US	4g\	-(us)	4ee\	-(us)	4ee\	-us
!	!	!	!	!	!	!	!	!	!	!	!	!	!LO:LB:g=original	!
4C/	4C/	Do-	4C/	Do-	4c\	Do-	4g\	Do-	4g\	Do-	4cc\	Do-	4cc\	Do-
4C/	8C/	-mi-	8C/	-mi-	8c\	-mi-	8g\	-mi-	8g\	-mi-	8cc\	-mi-	8cc\	-mi-
.	8C/	-n(us)	8C/	-nus	8c\	-nus	8g\	-nus	8g\	-nus	8cc\	-nus	8cc\	-nus
!	!	!	!	!	!LO:LB:g=original	!	!	!	!	!	!LO:PB:g=original	!	!	!
=29	=29	=29	=29	=29	=29	=29	=29	=29	=29	=29	=29	=29	=29	=29
4F\	4F\	De-	4F\	De-	4c\	DE-	4a\	DE-	4a\	De-	4cc\	De-	4cc\	De-
4E\	4E\	-us	4E\	-us	4c\	-US	4g\	-US	4g\	-us	4cc\	-us	4cc\	-us
4D\	4G\	Sab-	4D/	Sab-	4.d\	Sab-	4.f\	Sab-	4.f\	Sab-	4.dd\	Sab-	4.dd\	Sab-
4D\	4GG/	-ba-	4D/	-ba-	.	.	.	.	.	.	.	.	.	.
.	.	.	.	.	8B\	-ba-	8f\	-ba-	8f\	-ba-	8b\	-ba-	8dd\	-ba-
=30	=30	=30	=30	=30	=30	=30	=30	=30	=30	=30	=30	=30	=30	=30
2C/	2C/	-oth	2C/	-oth	2c\	-oth	2e\	-oth	2e\	-oth	2cc\	-oth	2cc\	-oth
2r	2r	.	2r	.	2r	.	2r	.	2r	.	2r	.	2r	.
!LO:LB:g=original	!	!	!	!	!	!	!	!	!	!	!	!	!	!
=31||	=31||	=31||	=31||	=31||	=31||	=31||	=31||	=31||	=31||	=31||	=31||	=31||	=31||	=31||
*M3/8	*M3/8	*	*M3/8	*	*M3/8	*	*M3/8	*	*M3/8	*	*M3/8	*	*M3/8	*
!LO:TX:b:i:t=Presto	!LO:TX:a:i:t=Tacet	!	!	!	!LO:TX:b:i:t=Pleni	!	!LO:TX:b:i:t=Pleni	!	!LO:N:vis=00	!	!	!	!	!
!	!	!	!	!	!LO:N:vis=00	!	!LO:N:vis=00	!	!	!	!	!	!	!
8c\L	4.ryy	.	8c\	Ple-	1.r	.	1.r	.	1.r	.	8e/	Ple-	8cc\	Ple-
8c\	.	.	8c\	-ni	.	.	.	.	.	.	8e/	-ni	8g/	-ni
8c\J	.	.	8c\	sunt	.	.	.	.	.	.	8f/	sunt	8a/	s(unt)
=32	=32	=32	=32	=32	=32	=32	=32	=32	=32	=32	=32	=32	=32	=32
8c\L	4.ryy	.	8c\	Cae-	.	.	.	.	.	.	8e/	Cae-	8g/	Cae-
8c\J	.	.	8c\	-li	.	.	.	.	.	.	8e/	-li	8g/	-li
8r	.	.	8r	.	.	.	.	.	.	.	8r	.	8r	.
=33	=33	=33	=33	=33	=33	=33	=33	=33	=33	=33	=33	=33	=33	=33
8C/L	4.ryy	.	8C/	Ple-	.	.	.	.	.	.	8cc\	Ple-	8e/	Ple-
8C/	.	.	8C/	-ni	.	.	.	.	.	.	8g/	-ni	8e/	-ni
8C/J	.	.	8C/	sunt	.	.	.	.	.	.	8a\	sunt	8f/	s(unt)
!	!	!	!LO:LB:g=original	!	!	!	!	!	!	!	!	!	!	!
=34	=34	=34	=34	=34	=34	=34	=34	=34	=34	=34	=34	=34	=34	=34
8C/L	4.ryy	.	8C/	Cae-	.	.	.	.	.	.	8g\	Cae-	8e/	Cae-
8C/J	.	.	8C/	-li	.	.	.	.	.	.	8g\	-li	8e/	-li
8r	.	.	8r	.	.	.	.	.	.	.	8r	.	8r	.
=35	=35	=35	=35	=35	=35	=35	=35	=35	=35	=35	=35	=35	=35	=35
!	!	!	!	!	!LO:N:vis=00	!	!LO:N:vis=00	!	!LO:N:vis=00	!	!	!	!	!
8C\L	4.ryy	.	8C\	Ple-	1.r	.	1.r	.	1.r	.	8e/	Ple-	8cc\	Ple-
8D\	.	.	8D\	-ni	.	.	.	.	.	.	8f/	-ni	8cc\	-ni
8E\J	.	.	8E\	sunt	.	.	.	.	.	.	8g/	sunt	8cc\	s(unt)
=36	=36	=36	=36	=36	=36	=36	=36	=36	=36	=36	=36	=36	=36	=36
8F\L	4.ryy	.	8F\L	Cae-	.	.	.	.	.	.	(8a\L	Cae-	4cc\	Cae-
8E\	.	.	8E\J	.	.	.	.	.	.	.	8g\J)	.	.	.
8F\J	.	.	8F\	-li	.	.	.	.	.	.	8a\	-li	8cc\	-li
!	!	!	!	!	!	!	!	!	!	!	!LO:LB:g=original	!	!LO:LB:g=original	!
=37	=37	=37	=37	=37	=37	=37	=37	=37	=37	=37	=37	=37	=37	=37
8C\L	4.ryy	.	8C\	Cae-	.	.	.	.	.	.	8e/	Cae-	8cc\	Cae-
8D\	.	.	8D\	-li	.	.	.	.	.	.	8f/	-li	8cc\	-li
8E\J	.	.	8E\	et	.	.	.	.	.	.	8g/	et	8cc\	et
=38	=38	=38	=38	=38	=38	=38	=38	=38	=38	=38	=38	=38	=38	=38
!	!	!	!	!	!	!	!	!	!	!	!	!	!	!LO:MO:mod=ter-
8F\L	4.ryy	.	(8F\L	ter-	.	.	.	.	.	.	8a\L	te-	4cc\	te-
8E\	.	.	8E\J)	.	.	.	.	.	.	.	8g\J	.	.	.
8F\J	.	.	8F\	-ra	.	.	.	.	.	.	8a\	-ra	8cc\	-ra
=39	=39	=39	=39	=39	=39	=39	=39	=39	=39	=39	=39	=39	=39	=39
!	!	!	!	!	!LO:N:vis=00	!	!LO:N:vis=00	!	!LO:N:vis=00	!	!	!	!	!
8D\L	4.ryy	.	8D\	glo-	1.r	.	1.r	.	1.r	.	8f#X/	glo-	8dd\	glo-
8E\	.	.	8E\	-ri-	.	.	.	.	.	.	8g/	-ri-	8dd\	-ri-
8F#X\J	.	.	8F#X\	-a	.	.	.	.	.	.	8a/	-a	8dd\	-a
=40	=40	=40	=40	=40	=40	=40	=40	=40	=40	=40	=40	=40	=40	=40
8G\L	4.ryy	.	(8G\L	tu-	.	.	.	.	.	.	8b\L	tu-	4dd\	tu-
!	!	!	!LO:SIC:v:s=8F#\J)	!	!	!	!	!	!	!	!	!	!	!
8F#X\	.	.	8F\J)	.	.	.	.	.	.	.	8a\J	.	.	.
8G\J	.	.	8G\	-a	.	.	.	.	.	.	8b\	-a	8dd\	-a
!	!	!	!LO:LB:g=original	!	!	!	!	!	!	!	!	!	!	!
=41	=41	=41	=41	=41	=41	=41	=41	=41	=41	=41	=41	=41	=41	=41
*	*	*	*	*	*	*	*	*	*	*	*	*ij	*	*ij
8D\L	4.ryy	.	8D\	glo-	.	.	.	.	.	.	8f#X/	glo-	8dd\	glo-
8E\	.	.	8E\	-ri-	.	.	.	.	.	.	8g/	-ri-	8dd\	-ri-
!LO:SIC:v:s=8F#\J	!	!	!	!	!	!	!	!	!	!	!	!	!	!
8F\J	.	.	8F#X\	-a	.	.	.	.	.	.	8a/	-a	8dd\	-a
!LO:LB:g=original	!	!	!	!	!	!	!	!	!	!	!	!	!	!
=42	=42	=42	=42	=42	=42	=42	=42	=42	=42	=42	=42	=42	=42	=42
8G\L	4.ryy	.	(8G\L	tu-	.	.	.	.	.	.	8b\L	tu-	4dd\	tu-
!LO:SIC:v:s=8F#\	!	!	!	!	!	!	!	!	!	!	!	!	!	!
8F\	.	.	8F#X\J)	.	.	.	.	.	.	.	8a\J	.	.	.
8G\J	.	.	8G\	-a	.	.	.	.	.	.	8b\	-a	8dd\	-a
*	*	*	*	*	*	*	*	*	*	*	*	*Xij	*	*Xij
!	!	!	!	!	!	!	!	!	!LO:LB:g=original	!	!	!	!	!
=43	=43	=43	=43	=43	=43	=43	=43	=43	=43	=43	=43	=43	=43	=43
!LO:TX:t=P:problem=mixed beam	!	!	!	!	!	!	!	!	!	!	!	!	!	!
8F\L	4.ryy	.	8F\	O-	8f\	O-	8f\	O-	8a\	O-	8cc\	O-	8ff\	O-
8C/	.	.	8C/	-san-	8c\	-san-	8f\	-san-	8g\	-san-	8cc\	-san-	8ff\	-san-
8F\J	.	.	8F\	-na	8f\	-na	8f\	-na	8a\	-na	8cc\	-na	8ff\	-na
=44	=44	=44	=44	=44	=44	=44	=44	=44	=44	=44	=44	=44	=44	=44
8c\L	4.ryy	.	8c\L	in	8c\L	in	4e\	in	4g\	in	8cc\L	in	8ee\L	in
8G\	.	.	8G\J	.	8d\J	.	.	.	.	.	8b\J	.	8dd\J	.
8c\J	.	.	8c\	ex-	8c\	ex-	8e\	ex-	8g\	ex-	8cc\	ex-	8ee\	ex-
=45	=45	=45	=45	=45	=45	=45	=45	=45	=45	=45	=45	=45	=45	=45
!LO:TX:t=P:problem=mixed beam	!	!	!LO:TX:t=P:problem=mixed beam	!	!	!	!	!	!	!	!	!	!	!
8F\L	4.ryy	.	8F\L	-cel-	8c\L	-cel-	4e\	-cel-	4.g\	-cel-	8cc\L	-cel-	8ee\	-cel-
8G\	.	.	8G\	.	8d\	.	.	.	.	.	8b\	.	4dd\	.
8GG/J	.	.	8GG/J	.	8B\J	.	8d\	.	.	.	8dd\J	.	.	.
!	!	!	!	!	!	!	!LO:PB:g=original	!	!	!	!LO:LB:g=original	!	!	!
=46	=46	=46	=46	=46	=46	=46	=46	=46	=46	=46	=46	=46	=46	=46
4.C/	4.ryy	.	4.C/	-sis	4.c\	-ſis	4.e\	-sis	4.g\	-ſis	4.ee\	-sis	4.cc\	-ſis
!	!LO:LB:g=original	!	!LO:LB:g=original	!	!LO:LB:g=original	!	!	!	!	!	!	!	!LO:LB:g=original	!
=47||	=47||	=47||	=47||	=47||	=47||	=47||	=47||	=47||	=47||	=47||	=47||	=47||	=47||	=47||
*M4/4	*M4/4	*	*M4/4	*	*M4/4	*	*M4/4	*	*M4/4	*	*M4/4	*	*M4/4	*
*met(c)	*met(c)	*	*met(c)	*	*met(c)	*	*met(c)	*	*met(c)	*	*met(c)	*	*met(c)	*
!!LO:TX:t=P:problem:metrum z kropką w środku (z wyj. b)
!LO:TX:b:i:t=Benedictus	!	!	!	!	!	!	!	!	!	!	!	!	!	!
4c\	4.c\	Be-	4.c\	Be-	8e\L	Be-	4.e\	Be-	4.g\	Be-	4cc\	Be-	4cc\	Be-
.	.	.	.	.	8d\J	.	.	.	.	.	.	.	.	.
4F\	.	.	.	.	8c\L	-ne-	.	.	.	.	4cc\	-ne-	4cc\	-ne-
.	8c\	-ne-	8F\	-ne-	8f\J	.	8f\	-ne-	8a\	-ne-	.	.	.	.
4C/	4c\	-di-	4C/	-di-	4e\	-di-	4e\	-di-	4g\	-di-	4cc\	-di-	4cc\	-di-
4C/	4c\	-ct(us)	4C/	-ctus	4e\	-ct(us)	4e\	-ct(us)	4g\	-ctus	4cc\	-ct(u)s	4cc\	-ctus
=48	=48	=48	=48	=48	=48	=48	=48	=48	=48	=48	=48	=48	=48	=48
!	!	!	!	!	!	!	!	!	!	!	!	!	!LO:TX:t=P:problem=takt niejasny harmonicznie	!
4r	4r	.	4r	.	4r	.	4r	.	4r	.	4r	.	4r	.
8G\L	8G\	Be-	8G\	Be-	8g\	Be-	8g\	Be-	8g\	Be-	8b\	Be-	8dd\	Be-
8B\J	8GG/	-ne-	8B\	-ne-	8e\	-ne-	8d\	-ne-	8g\	-ne-	8b\	-ne-	8b\	-ne-
4G\	4C/	-di-	4G\	-di-	8e\L	-di-	8e\L	-di-	8g\L	-di-	4cc\	-di-	4cc\	-di-
.	.	.	.	.	8d\J	.	8d\J	.	8f\J	.	.	.	.	.
8G\L	8E\	-ctus	8G\	-ctus	8c\	-ct(us)	8c\	-ctus	8e\	-ctus	8dd\	-ctus	8ff\	-ctus
8F\J	8F\	qui	8F\	qui	8f\	qui	8f\	qui	8a\	qui	8cc\	qui	8ee\	qui
=49	=49	=49	=49	=49	=49	=49	=49	=49	=49	=49	=49	=49	=49	=49
4G\	4G\	ve-	4G\	ve-	4g\	ve-	4g\	ve-	4g\	ve-	4b\	ve-	4dd\	ve-
4G\	4G\	-nit	4G\	-nit	4d\	-nit	4d\	-nit	4g\	-nit	4b\	-nit	4dd\	-nit
4r	4r	.	4r	.	4r	.	4r	.	4r	.	4r	.	4r	.
4C/	4c\	qui	4C/	qui	4c\	qui	4e\	qui	4g\	qui	4cc\	qui	4cc\	qui
!LO:LB:g=original	!	!	!	!	!	!	!	!	!	!	!	!	!	!
=50	=50	=50	=50	=50	=50	=50	=50	=50	=50	=50	=50	=50	=50	=50
2F\	2c\	ve-	2F\	ve-	2c\	ve-	2f\	ve-	2a\	ve-	2cc\	ve-	2cc\	ve-
4F\	4c\	-nit	4F\	-nit	4d\	-nit	4e\	-nit	4g\	-nit	4cc\	-nit	4cc\	-nit
8E\L	8c\L	in	8E\L	in	8e\L	in	8f\L	in	4a\	in	8dd\L	in	8dd\L	in
8C\J	8A\J	.	8C\J	.	8f\J	.	8e\J	.	.	.	8cc\J	.	8cc\J	.
!	!	!	!	!	!	!	!	!	!LO:LB:g=original	!	!	!	!	!
=51	=51	=51	=51	=51	=51	=51	=51	=51	=51	=51	=51	=51	=51	=51
!	!	!	!	!	!LO:TX:t=P:problem=Do- poprawione na No-	!	!	!	!	!	!	!	!	!
4G\	8.G\	no-	8.G\	No-	8.g\	No-	8.d\	No-	8.g\	no-	8.dd\	no-	8.b\	No-
.	16G\	-mi-	16G\	-mi-	16e\	-mi-	16d\	-mi-	16g\	-mi-	16dd\	-mi-	16b\	-mi-
!	!	!	!	!	!	!	!	!	!LO:N:vis=8	!	!	!	!	!
4G\	4G\	-ne	4G\	-ne	4d\	-ne	4d\	-ne	4g\	-ne	4b\	-ne	4b\	-ne
4r	4r	.	4r	.	4r	.	4r	.	4r	.	4r	.	4r	.
!LO:TX:t=P:problem=brak 4 miar	!LO:LB:g=original	!	!LO:TX:t=P:problem=brak 4 miar	!	!	!	!LO:LB:g=original	!	!	!	!LO:TX:t=P:problem=8b poprawione na 8dd	!	!	!
4ryy	4G\	qui	4ryy	.	8d\L	qui	[8g\L	qui	4g\	qui	8dd\L	qui	4dd\	qui
!	!	!	!	!	!	!	!	!	!	!	!LO:TX:t=P:problem=8b poprawione na 8dd	!	!	!
.	.	.	.	.	8B\J	.	8g\J]	.	.	.	8cc\J	.	.	.
!	!	!	!LO:LB:g=original	!	!LO:LB:g=original	!	!	!	!	!	!LO:LB:g=original	!	!	!
=52	=52	=52	=52	=52	=52	=52	=52	=52	=52	=52	=52	=52	=52	=52
2ryy	4G\	ve-	2ryy	.	4c\	ve-	4g\	ve-	4g\	ve-	8cc\	ve-	4ee\	ve-
.	.	.	.	.	.	.	.	.	.	.	4.cc\	-nit	.	.
.	4GG/	-nit	.	.	4G/	-nit	4g\	-nit	4g\	-nit	.	.	4ee\	-nit
4ryy	4r	.	4ryy	.	4r	.	4r	.	4r	.	4r	.	4r	.
!	!	!	!LO:N:vis=8	!	!	!	!	!	!	!	!	!	!	!
4C/	8c\	in	4C/	qui	4c\	in	4e\	qui	4g\	qui	8r	.	8r	.
!	!	!	!	!	!	!	!	!	!	!	!	!	!LO:LB:g=original	!
.	8r	.	.	.	.	.	.	.	.	.	8cc\	in	8cc\	in
=53	=53	=53	=53	=53	=53	=53	=53	=53	=53	=53	=53	=53	=53	=53
4F\	8.c\	No-	4F\	ve-	8.c\	No-	4f\	ve-	4a\	ve-	4.cc\	No-	8.cc\	No-
.	16c\	-mi-	.	.	16c\	-mi-	.	.	.	.	.	.	16cc\	-mi-
4F\	4c\	-ne	4F\	-nit	4c\	-ne	4f\	-nit	4a\	-nit	.	.	4cc\	-ne
.	.	.	.	.	.	.	.	.	.	.	8cc\	-mi-	.	.
4r	4r	.	4r	.	4r	.	4r	.	4r	.	4cc\	-ne	4dd\	No-
!LO:TX:t=P:problem=mixed beam	!LO:TX:t=P:problem=mixed beam	!	!LO:TX:t=P:problem=mixed beam	!	!	!	!	!	!	!	!	!	!	!
8G\L	8G\L	Do-	8G\L	in	8d\L	in	8d\L	in	[8g\L	in	8dd\L	in	(8ff\L	.
8GG/J	8GG/J	.	8GG/J	.	8c\J	.	8g\J	.	8g\J]	.	8cc\J	.	8ee\J)	.
=54	=54	=54	=54	=54	=54	=54	=54	=54	=54	=54	=54	=54	=54	=54
4G\	4.G\	.	8.G\	No-	4.d\	no-	4.g\	No-	4.g\	No-	4.b\	No-	4.dd\	.
.	.	.	16G\	-mi-	.	.	.	.	.	.	.	.	.	.
4C/	.	.	4C/	-ne	.	.	.	.	.	.	.	.	.	.
.	8GG/	-mi-	.	.	8B\	.	8g\	-mi-	8g\	-mi-	8b\	-mi-	8dd\	-mi-
8r	8C,/	-ni	8r	.	4c\	.	(8g\L	-ne	(8g\L	-ne	4cc\	-ne	4cc\	-ne
8F\L	8c\	O-	8F\	qui	.	.	8f\J)	.	8a\J)	.	.	.	.	.
8E\	8c\	-ſan-	8E\	ve-	8c\	-mi-	8e\	Do-	8g\	Do-	8cc\	Do-	8cc\	Do-
8F\J	8c\	-na	8F\	-nit	8c\	-ne	8f\	-mi-	8a\	-mi-	8cc\	-mi-	8cc\	-mi-
=55	=55	=55	=55	=55	=55	=55	=55	=55	=55	=55	=55	=55	=55	=55
8C\L	8c\	in	8C/	qui	8c\	Do-	8e\	-ni	8g,\	-ni	8cc\	-ni	8cc\	-ni
8F\	8c\	ex-	8F\	ve-	8c\	-mi-	8f\	O-	8a\	O-	8cc\	O-	8cc\	O-
8E\	8c\	-cel-	8E\	-nit	8c\	-ni	8e\	-San-	8g\	-san-	8cc\	-san-	8cc\	-san-
8F\J	8c\	-ſis	8F\	in	8c\	O-	8f\	-na	8a\	-na	8cc\	-na	8cc\	-na
*	*	*ij	*	*	*	*	*	*	*	*	*	*	*	*
!LO:TX:t=P:problem=mixed beam	!	!	!LO:TX:t=P:problem=mixed beam	!	!	!	!	!	!	!	!	!	!	!
8C/L	8c\	in	8C/L	No-	8c\	-san-	8e\	in	8g\	in	8cc\	in	8cc\	in
!	!	!	!	!	!	!	!LO:LB:g=original	!	!LO:LB:g=original	!	!	!	!	!
8c\	8G\	ex-	8c\J	.	8g\	-na	8g\	ex-	8g\	ex-	8cc\	ex-	8ee\	ex-
8G\	8G\	-cel-	8G\	-mi-	8g\	in	8g\	-cel-	8g\	-cel-	8b\	-cel-	8dd\	-cel-
8c\J	8G\	-ſis	8c\	-ne	8g\	ex-	8g\	-ſis	8g\	-ſis	8cc\	-ſis	8ee\	-ſis
!	!LO:LB:g=original	!	!	!	!LO:PB:g=original	!	!	!	!	!	!	!	!	!
=56	=56	=56	=56	=56	=56	=56	=56	=56	=56	=56	=56	=56	=56	=56
8G\L	8G\	in	8G\	Do-	8g\	-cel-	8g\	in	8g\	in	8b\	in	8dd\	.
8c\	8G\	ex-	8c\	-mi-	8g\	-ſis	8g\	ex-	8g\	ex-	8cc\	ex-	8ee\	O-
!	!	!	!LO:LB:g=original	!	!	!	!	!	!	!	!LO:LB:g=original	!	!	!
8G\	8G\	-cel-	8G\	-ni	8g\	in	8g\	-cel-	8g\	-cel-	8b\	-cel-	8dd\	-san-
8c\J	8G,\	-ſis	8c\	O-	8g\	ex-	8g\	-ſis	8g\	-ſis	8cc\	-ſis	8ee\	-na
*	*	*Xij	*	*	*	*	*	*ij	*	*ij	*	*	*	*
!LO:TX:t=P:problem=mixed beam	!	!	!	!	!	!	!	!	!	!	!	!	!	!
8G\L	8G\L	in	8G\	-san-	8c\	-cel-	8g\	in	8g\	in	4cc\	in	4cc\	in
8F\	8c\J	.	8F\	-na	8c\	-ſis	8f\	ex-	8a\	ex-	.	.	.	.
8C/	4c\	.	8C/	in	8c\	in	8e\	-cel-	8g\	-cel-	4cc\	ex-	4cc\	ex-
8F\J	.	.	8F\	ex-	8c\	ex-	8f\	-ſis	8a\	-ſis	.	.	.	.
*	*	*	*	*	*	*	*	*Xij	*	*Xij	*	*	*	*
!LO:LB:g=original	!	!	!	!	!	!	!	!	!	!	!	!	!LO:LB:g=original	!
=57	=57	=57	=57	=57	=57	=57	=57	=57	=57	=57	=57	=57	=57	=57
8C\L	8c\	ex-	8C/	-cel-	[8c\	-cel-	8e\	in	8g\	in	8cc\	-cel-	8cc\	.
8F\	8c\	.	8F\	-ſis	8c\]	.	8f\	ex-	8a\	ex-	8cc\	.	8cc\	-cel-
8C\	8c\	-cel-	8C\L	in	4c\	.	8e\L	-cel-	8g\L	-cel-	4cc\	.	4cc\	.
!	!LO:N:vis=4	!	!	!	!	!	!	!	!	!	!	!	!	!
8F\J	8c\	.	8F\J	ex-	.	.	8f\J	.	8a\J	.	.	.	.	.
!	!LO:N:vis=4	!	!	!	!	!	!	!	!	!	!	!	!	!
2C/	2c\	-ſis	2C/	-celſis	4c\	-ſis	2e\	-ſis	2g\	-ſis	2cc\	-sis	2cc\	-ſis
.	.	.	.	.	4r	.	.	.	.	.	.	.	.	.
==	==	==	==	==	==	==	==	==	==	==	==	==	==	==
*-	*-	*-	*-	*-	*-	*-	*-	*-	*-	*-	*-	*-	*-	*-
!!!system-decoration: [(g1)]g2
!!!ENC: Katarzyna Serwa
!!!END: 2021-03-28
!!!ENC: Andrzej Borzym
!!!END: 2021-02-04
